X:1
T:Title
%%score { ( 1 4 5 ) | ( 2 3 ) }
L:1/8
M:4/4
K:Db
V:1 treble nm="Grand Piano"
V:4 treble 
V:5 treble 
V:2 bass 
V:3 bass 
V:1
 z4 z2 z[Q:1/4=100] A | [Fd]3 [A,A] [Fd]3 A | BAFD [CA]>[A,EG] [A,DF]2 | %3
 [CE]>[DF] [EG][CE] [DF]>[EG] [FA][Fd] | [Ec]2 [DEB]2 [CEA]4 | e>c Bc [Fd]2 [FA]2 | %6
 [GB]>[Ac] [Bd][Be] [=Af]4 | [Be]>[Bd] [Ac]B ABBe | d2 [Ec]2 [Fd]4 | [Ec]4 [=D_c]3 c | %10
 [Ec]4- [Ec]E[=DF][_D=G] | [CA]2 [Ec]2 [Fd]2 [Ec]2 | [DB]>F [DB]4 z2 | [Fd]4 [Ec]3 _c | %14
 [Ec]4- [Ec]A[CA]F | [B,=G]2 [=DB]2 B2 F2 | z2 B4 z2 | d4 z4 | z2 A6 | A4 z2 [F_c]2 | c8 | c4 z4 | %22
 z2 [Fd]4 z2 | A4 =G4 |[M:7/8] A-A-A- A3 z |[M:1/8] A |[M:4/4] [Fd]3 [A,A] [Fd]3 A | %27
 BAFD [CA]>[EG] [DF]2 | [CE]>[DF] [EG][CE] [DF]>[EG] [FA][Fd] | [Ec]2 [DEB]2 [CEA]4 | %30
 e>c Bc [Fd]2 [FA]2 | [GB]>[Ac] [Bd][Be] [=Af]4 | [Be]>[Bd] [Ac]B ABBe | d2 [Ec]2 [Fd]4 | [Gd]8 | %35
[M:7/8] [Fd]-[Fd]-[Fd]- [Fd]3 z |] %36
V:2
 z4 z2 z A, | [D,A,]4 [D,A,]3 A, | B,A,F,D, [A,,E,]>G,, D,2 | %3
 [A,,A,]>[A,,A,] [A,,A,][A,,A,] [D,A,]>[D,A,] [D,D][D,A,] | [E,A,]2 E,2 A,,4 | %5
 [A,CG]>[A,G] [A,G][A,G][K:bass] [D,A,]2 [D,D]2 | [G,D]>[G,D] [G,D][G,B,] [F,C]4 | %7
 [G,B,]>[G,B,] [G,C][G,DG] [F,D][K:treble][G,DG][G,DG][G,B,G] | [A,F]2[K:bass] [A,,A,]2 [D,A,]4 | %9
 A,,2 E,2 A,2 z =D | A,,2 E,2 A,=G,F,E, | A,,2 A,2 F,,2 [F,=A,]2 | z z/ D/ _F,=F, =G,2 F,2 | %13
 E,,2 E,2 =G,2 z =D | A,,2 E,2 z C z _C | B,,,2 B,,2 [F,=D]2 [A,D]2 | D>E D-[F,D-] [=G,D]2 E,2 | %17
 [E,B,E]2 [E,B,][E,B,] [E,=G,D]2 [E,D]2 | [A,,E,]2 [A,,E,]2 [A,,E,]>[A,,=D,] [A,,E,][A,,G,] | %19
 [D,F,D]2 [D,F,]D, [D,A,]2 .[D,=G,]2 | [C,=G,]2 [C,G,]2 G,2 z2 | %21
 F2- [F,F-][F,F] [F,=A,F]2 [F,A,F]2 | [B,,B,]2 [B,,B,]2 z D[C,=A,][D,B,] | %23
 [E,CE]2 [E,C][E,C] [E,B,D]2 [E,B,]2 |[M:7/8] [A,,A,]2 [A,,F,]2 [A,,G,]2 z |[M:1/8] A, | %26
[M:4/4] [D,A,]4 [D,A,]3 A, | B,A,F,D, [A,,E,]>[A,,A,] [D,A,]2 | %28
 [A,,A,]>[A,,A,] [A,,A,][A,,A,] [D,A,]>[D,A,] [D,D][D,A,] | [E,A,]2 E,2 A,,4 | %30
 [A,CG]>[A,G] [A,G][A,G][K:bass] [D,A,]2 [D,D]2 | [G,D]>[G,D] [G,D][G,B,] [F,C]4 | %32
 [G,B,]>[G,B,] [G,C][G,DG] [F,D][K:treble][G,DG][G,DG][G,B,G] | [A,F]2[K:bass] [A,,A,]2 [D,A,]4 | %34
 B,4 z4 |[M:7/8] [D,A,]-[D,A,]-[D,A,]- [D,A,]3 z |] %36
V:3
 x8 | x8 | x8 | x8 | x8 | x4[K:bass] x4 | x8 | x5[K:treble] x3 | x2[K:bass] x6 | z4 z2 E,2 | x8 | %11
 x8 | B,,2 z2 z4 | z4 z2 E,2 | z4 A,2 A,,2 | x8 | [E,=G,]2 .[D,F,]2 z4 | x8 | x8 | x8 | z4 C,4 | %21
 [F,=A,]2 z2 z4 | z4 B,,2 z2 | x8 |[M:7/8] x7 |[M:1/8] x |[M:4/4] x8 | x8 | x8 | x8 | %30
 x4[K:bass] x4 | x8 | x5[K:treble] x3 | x2[K:bass] x6 | D,8 |[M:7/8] x7 |] %36
V:4
 x8 | x8 | x8 | x8 | x8 | x8 | x8 | x8 | x8 | x8 | x8 | x8 | x8 | x8 | x8 | x8 | %16
 B>c z A, B,2 =G,2 | z2 EE F2 =G2 | [DB]2 C2 C>_C =CC | z2 D2 z4 | z4 _F4 | z2 =A,A, f2 e2 | %22
 [Fe]2 z2 z F[Fc][FB] | z2 EE z2 D2 |[M:7/8] C2 D2 C2 z |[M:1/8] x |[M:4/4] x8 | x8 | x8 | x8 | %30
 x8 | x8 | x8 | x8 | z4 =A,4 |[M:7/8] x7 |] %36
V:5
 x8 | x8 | x8 | x8 | x8 | x8 | x8 | x8 | x8 | x8 | x8 | x8 | x8 | x8 | x8 | x8 | x8 | x8 | x8 | %19
 z2 z F, [FB]2 z F, | _F2 F2 z2 B,2 | x8 | z4 B,2 z2 | x8 |[M:7/8] x7 |[M:1/8] x |[M:4/4] x8 | x8 | %28
 x8 | x8 | x8 | x8 | x8 | x8 | x8 |[M:7/8] x7 |] %36

